X:103
T:Roman Dance. VWMLa.103
%%VWML:Anon2-3049-p59-0
F:http://www.vwml.org/record/Anon2/3049/p59
S:Anon. MS, late 18thC, Vaughan Williams Mem. Library
O:England;Yorkshire
Z:vmp/efdss.Simon Wilson. Reviewed PJH 2008.
M:6/8
L:1/8
Q:3/8=80
K:G
G|GFG EFG|ABc (B/c/d).D|\
GFG EcB|AGFG2:|
|:d|dBd dBd|(e/f/g).e d2d|\
dBd dBd|cBA G2:|
|:E|DB,G, DB,G,|A,B,C B,A,G,|\
DB,G, DB,G,|CB,A, G,2:|
T:Country Bumkin. VWMLa.104
R:jig
S:Anon. MS, late 18thC, Vaughan Williams Mem. Library
O:England;Yorkshire
Z:vmp/efdss.Simon Wilson. Reviewed PJH 2008.
M:6/4
L:1/4
Q:3/4=120
K:F
B3 A3|G>AF E>DC|F2F A>GA|F2F A>GA|\
B3 A3|G>AF E>DC|fef c>dB|AFF2z2:|
|:b3 a3|g>af e>dc|f2f a>ga|f2f a>ga|\
b3 a3|g>af e>dc|fef c>dB|AFF2z2:|
